!!!COM: Palestrina, Giovanni Perluigi da
!!!OPR: Assumpta est Maria
!!!OTL: Agnus II
**kern	**kern	**kern	**kern	**kern	**kern
*Ibass	*Itenor	*Itenor	*Icalto	*Icant	*Icant
!Bassus	!Tenor 2	!Tenor 1	!Altus	!Cantus 2	!Cantus 1
*clefF4	*clefGv2	*clefGv2	*clefG2	*clefG2	*clefG2
*k[]	*k[]	*k[]	*k[]	*k[]	*k[]
*G:mix	*G:mix	*G:mix	*G:mix	*G:mix	*G:mix
*M4/2	*M4/2	*M4/2	*M4/2	*M4/2	*M4/2
=1	=1	=1	=1	=1	=1
0r	0r	0d	0f#	0dd	0a
=2	=2	=2	=2	=2	=2
0r	0r	1A	1e	1cc#	1a
.	.	1d	1f#	1dd	1a
=3	=3	=3	=3	=3	=3
0r	0r	1G	1g	4b	1dd
.	.	.	.	4cc	.
.	.	.	.	4dd	.
.	.	.	.	4b	.
.	.	[1c	2.e	1cc	2r
.	.	.	.	.	2g
.	.	.	4d	.	.
=4	=4	=4	=4	=4	=4
0r	0r	2c]	2c	2r	2a
.	.	2d	2B	2g	2b
.	.	2e	2A	1a	2cc
.	.	2f#	2d	.	[2dd
=5	=5	=5	=5	=5	=5
0r	0r	2g	2G	2b	2dd]
.	.	2e	1g	2cc	2g
.	.	[1d	.	1dd	1a
.	.	.	2f#	.	.
=6	=6	=6	=6	=6	=6
0G	0g	1d]	2g	2.dd	2.b
.	.	.	1d	.	.
.	.	.	.	4cc	4cc
.	.	2r	.	4b	2dd
.	.	.	.	4a	.
.	.	2B	2d	2g	[2dd
=7	=7	=7	=7	=7	=7
1D	1f#	2A	0d	1a	2dd]
.	.	4d	.	.	2dd
.	.	4c	.	.	.
1G	1g	4B	.	1b	1dd
.	.	4A	.	.	.
.	.	2B	.	.	.
=8	=8	=8	=8	=8	=8
1C	4e	1c	1e	1g	2.cc
.	4f	.	.	.	.
.	4g	.	.	.	.
.	4e	.	.	.	4b
[1F	[1f	2r	2r	1r	1a
.	.	2c	[2a	.	.
=9	=9	=9	=9	=9	=9
2F]	2f]	2d	2a]	0r	0r
2G	4e	2e	2g	.	.
.	4d	.	.	.	.
2A	2c	2f	2cc	.	.
2B	2d	[2g	4b	.	.
.	.	.	4a	.	.
=10	=10	=10	=10	=10	=10
0c	2e	2g]	2g	1r	1r
.	2f	1f	2a	.	.
.	1g	.	2g	2r	2r
.	.	2e	2c	[2cc	2g
=11	=11	=11	=11	=11	=11
1F	0r	1f	2r	2cc]	1a
.	.	.	2f	2dd	.
1r	.	2e	2g	2ee	2b
.	.	2a	2a	2ff	2cc
=12	=12	=12	=12	=12	=12
0r	1r	2g	2b	1gg	2dd
.	.	2c	1cc	.	1ee
.	2r	1g	.	[1gg	.
.	[2G	.	4b	.	4dd
.	.	.	4a	.	4cc
=13	=13	=13	=13	=13	=13
0r	2G]	0r	2b	2gg]	2dd
.	2A	.	2.a	4ff	2cc
.	.	.	.	4ee	.
.	2.B	.	.	[1dd	1b
.	.	.	4g	.	.
.	.	.	[2g	.	.
.	4c	.	.	.	.
=14	=14	=14	=14	=14	=14
1r	1d	0r	2g]	1dd]	1a
.	.	.	2f#	.	.
2r	[1e	.	2g	2b	1g
[2C	.	.	2c	[2g	.
=15	=15	=15	=15	=15	=15
2C]	2e]	1.G	2g	4g]	0r
.	.	.	.	4a	.
2D	2f	.	2f	2b	.
2E	2g	.	2e	2cc	.
2F	4f	2A	4d	[2dd	.
.	4e	.	4c	.	.
=16	=16	=16	=16	=16	=16
[0G	2d	2B	2B	2dd]	2.g
.	2c	2c	2G	2ee	.
.	.	.	.	.	4a
.	2B	2d	[1g	2dd	2b
.	[2G	2e	.	[2cc	2cc
=17	=17	=17	=17	=17	=17
0G]	4G]	0d	0g]	2cc]	0dd
.	4A	.	.	.	.
.	4B	.	.	4b	.
.	4c	.	.	4a	.
.	2d	.	.	1b	.
.	2G	.	.	.	.
=18	=18	=18	=18	=18	=18
0C	2r	1c	2r	2cc	2ee
.	2c	.	2g	2ee	2cc
.	1c	1r	1g	1ee	1cc
=19	=19	=19	=19	=19	=19
0r	2G	0r	2.g	4dd	1b
.	.	.	.	4cc	.
.	2g	.	.	4b	.
.	.	.	4f	4a	.
.	2g	.	4e	2b	2r
.	.	.	4d	.	.
.	2e	.	4c	2cc	2ee
.	.	.	4B	.	.
=20	=20	=20	=20	=20	=20
0r	1f	0r	2A	2cc	2ee
.	.	.	2a	2a	2dd
.	1e	.	2a	1b	1ee
.	.	.	2g#	.	.
=21	=21	=21	=21	=21	=21
2r	2r	2r	2a	1a	0cc
2F	2c	2f	4a	.	.
.	.	.	4a	.	.
1F	1c	1f	1a	1r	.
=22	=22	=22	=22	=22	=22
2C	0c	2.e	2.g	0r	0r
2c	.	.	.	.	.
.	.	4f	4f	.	.
2c	.	2g	2e	.	.
2A	.	2a	2f	.	.
=23	=23	=23	=23	=23	=23
1B-	2r	2a	2f	0r	0r
.	2d	2g	2d	.	.
1A	2d	1a	1e	.	.
.	2c#	.	.	.	.
=24	=24	=24	=24	=24	=24
2r	4d	2.a	1d	2r	2r
.	4e	.	.	.	.
2d	4f	.	.	2a	2dd
.	4g	4g	.	.	.
1d	2a	4f	1r	1a	[1dd
.	.	4e	.	.	.
.	2f	[2d	.	.	.
=25	=25	=25	=25	=25	=25
0G	1g	4d]	2r	2.b	1dd]
.	.	4c	.	.	.
.	.	4B	2g	.	.
.	.	4A	.	4cc	.
.	1r	1B	1g	2dd	2g
.	.	.	.	2dd	2gg
=26	=26	=26	=26	=26	=26
0r	0r	0r	2c	2.ee	1gg
.	.	.	2cc	.	.
.	.	.	.	4ff	.
.	.	.	2cc	2gg	2ee
.	.	.	2a	2cc	[2ff
=27	=27	=27	=27	=27	=27
0r	0r	0r	1b-	1dd	2ff]
.	.	.	.	.	4ee
.	.	.	.	.	4dd
.	.	.	[1a	2ee	2cc#
.	.	.	.	2ff	[2dd
=28	=28	=28	=28	=28	=28
0r	1r	1r	1a]	1ee	2dd]
.	.	.	.	.	2cc#
.	1d	1f#	2r	2r	1dd
.	.	.	2a	2dd	.
=29	=29	=29	=29	=29	=29
1r	1d	1f#	1a	1dd	1r
2r	1G	2.g	2b	4dd	2r
.	.	.	.	4cc	.
2G	.	.	2g	4b	2dd
.	.	8f	.	4a	.
.	.	8e	.	.	.
=30	=30	=30	=30	=30	=30
1G	2r	1d	2g	1b	1dd
.	2g	.	2g	.	.
2C	2g	2c	1e	1cc	2ee
2c	4e	[2g	.	.	2ee
.	4f	.	.	.	.
=31	=31	=31	=31	=31	=31
2c	4g	2g]	1c	0r	2ee
.	4e	.	.	.	.
2A	2a	4f	.	.	2cc
.	.	4e	.	.	.
2.B	1g	2d	1r	.	2.dd
.	.	[2g	.	.	.
4c	.	.	.	.	4ee
=32	=32	=32	=32	=32	=32
1A	1c	2g]	1r	1r	1cc
.	.	2f#	.	.	.
[1G	1d	1g	2r	2r	2b
.	.	.	[2g	[2dd	[2b
=33	=33	=33	=33	=33	=33
1G]	0r	0r	2g]	2dd]	2b]
.	.	.	2g	2dd	2b
1r	.	.	2c	2ee	2cc
.	.	.	2e	2gg	2g
=34	=34	=34	=34	=34	=34
0r	0r	0r	2d	2ff	4a
.	.	.	.	.	4b
.	.	.	4c	1ee	4cc
.	.	.	4d	.	4b
.	.	.	4e	.	4g
.	.	.	4f	.	4a
.	.	.	[2g	4dd	4b
.	.	.	.	4cc	4cc
=35	=35	=35	=35	=35	=35
0r	0r	0r	2g]	2b	2dd
.	.	.	2a	2cc	1cc
.	.	.	1g	1dd	.
.	.	.	.	.	2b
=36	=36	=36	=36	=36	=36
2r	2r	1r	2c	0ee	0cc
1c	1e	.	1g	.	.
.	.	2r	.	.	.
2c	2e	[2c	2g	.	.
=37	=37	=37	=37	=37	=37
2F	2f	2c]	2a	0r	0r
2A	2e	2c	2cc	.	.
2G	2g	2d	2b	.	.
4F	[2c	2f	[2a	.	.
4G	.	.	.	.	.
=38	=38	=38	=38	=38	=38
4A	4c]	2.e	2a]	0r	2r
4B	4d	.	.	.	.
1c	2.e	.	4g	.	1g
.	.	4d	4f	.	.
.	.	2c	2e	.	.
.	4f	.	.	.	.
2B	[2g	2d	2d	.	2g
=39	=39	=39	=39	=39	=39
1A	2g]	2e	1c	0r	2a
.	2f#	2c	.	.	2cc
1G	4g	2d	2r	.	1b
.	4f	.	.	.	.
.	4e	[2e	[2g	.	.
.	4d	.	.	.	.
=40	=40	=40	=40	=40	=40
0A	2c	2e]	2g]	0r	[0a
.	2d	1d	2f	.	.
.	2e	.	1e	.	.
.	2A	2c#	.	.	.
=41	=41	=41	=41	=41	=41
1D	2r	1d	2f#	2r	1a]
.	1d	.	1f#	1a	.
1r	.	1r	.	.	2r
.	2d	.	2f#	2a	[2dd
=42	=42	=42	=42	=42	=42
0r	2G	1r	1g	2b	2dd]
.	2B	.	.	2dd	2dd
.	2c	2r	1g	2cc	2ee
.	2G	[2d	.	2b	2gg
=43	=43	=43	=43	=43	=43
0r	2d	2d]	0r	1.a	2ff
.	2c#	2e	.	.	2.ee
.	2d	2f#	.	.	.
.	.	.	.	.	4dd
.	2G	2g	.	2b	[2dd
=44	=44	=44	=44	=44	=44
1r	1A	1e	0r	1a	2dd]
.	.	.	.	.	2cc
[1G	2B	2d	.	2r	2.dd
.	[2B	[2d	.	[2dd	.
.	.	.	.	.	4cc
=45	=45	=45	=45	=45	=45
2G]	2B]	2d]	1.g	2dd]	4b
.	.	.	.	.	4a
2G	2B	2d	.	2dd	4g
.	.	.	.	.	4f
2C	2c	2e	.	2gg	1e
2E	2B	2g	2g	2ee	.
=46	=46	=46	=46	=46	=46
2D	2d	2f	2a	2ff	2r
2C	2.G	2e	1cc	2.gg	1g
1G	.	1d	.	.	.
.	4A	.	.	4ff	.
.	2B	.	[2b	4dd	2g
.	.	.	.	4ee	.
=47	=47	=47	=47	=47	=47
1F	2c	1r	4b]	2.ff	2a
.	.	.	4a	.	.
.	2A	.	2.a	.	2cc
.	.	.	.	4ee	.
2G	2B	2.d	.	1dd	1b
.	.	.	4g	.	.
2G	2G	.	[2g	.	.
.	.	4d	.	.	.
=48	=48	=48	=48	=48	=48
0D	2.A	2d	2g]	0dd	2.a
.	.	2d	4f#	.	.
.	4B	.	4e	.	4g
.	1A	1d	1f#	.	1a
=49	=49	=49	=49	=49	=49
0G	0G	0B	0g	0dd	0b
==	==	==	==	==	==
*-	*-	*-	*-	*-	*-
!!!CDT: 1525/^1526/-1594/2/2
!!!OCY: Italia
!!!AGN: Mass (Parody)
!!!AST: renaissance, vocal
!!!ASW: Motet (Palestrina)
!!!PWK: Masses, Book 9
!!!RNB: Cadence finals: C
!!!YOR: Le Opere Complete, v. 25, p. 209
!!!YOO: Rome, Italy: Fratelli Scalera
!!!END: 1992//
!!!EED: John Miller
!!!YEC: Copyright 2000, John Miller
!!!YEN: United States of America
!!!YEM: Rights to all derivative electronic formats reserved.
!!!YEM: Refer to licensing agreement for further details.
!!!YEM: This file must be accompanied by the licensing agreement.
!!!YEM: A copy of the licensing agreement may be found at http://www.music-cog.ohio-state.edu/HumdrumDatabases/Palestrina/license.txt
!!!EMD: converted to Humdrum by Bret Aarden
